X:131
T:Trip to Guadaloup, A
M:C |
L:1/8
B:Thompson's Compleat Collection of 200 Favourite Country Dances, vol. 2 (London, 1765)
Z:Transcribed and edited by Flynn Titford-Mock, 2007
Z:abc's:AK/Fiddler's Companion
K:Eb
B e2 g bg e2 | (g/a/b) ag {a}g2f2 | B e2 g bg e2 | (c/d/e) BA A2G2 | EGBe ge c2 |
Aceg af d2 | bfgd ecd=A | Bedc B4 :: bggf =e3 _d | cBAG A3f | affe d3c |
BAGF E3B, | G,B,EG eBAG | Acfg afed | gbge BfdB | ceBG E4 :|

